Hatter-kde-dark/actions/16/draw-line.svg

<svg xmlns="http://www.w3.org/2000/svg" viewBox="0 0 16 16">
  <defs id="defs3051">
    <style type="text/css" id="current-color-scheme">
      .ColorScheme-Text {
        color:#dedede;
      }
      </style>
  </defs>
 <path style="fill:currentColor;fill-opacity:1;stroke:none" 
     d="M 11 2 L 11 4.3125 L 4.3125 11.001953 L 2.0019531 11.001953 L 2.0019531 14.001953 L 5.0019531 14.001953 L 5.0019531 11.6875 L 11.6875 5 L 14 5 L 14 2 L 11 2 z M 12 3 L 13 3 L 13 4 L 12 4 L 12 3 z M 3 12 L 4 12 L 4 13 L 3 13 L 3 12 z "
     class="ColorScheme-Text"
     />
</svg>

<?xml version="1.0" encoding="UTF-8"?>
<svg viewBox="0 0 16 16" xmlns="http://www.w3.org/2000/svg">
 <defs id="defs3051">
  <style id="current-color-scheme" type="text/css">.ColorScheme-Text {
        color:#dedede;
      }</style>
 </defs>
 <path class="ColorScheme-Text" d="m11 2v2.3125l-6.6875 6.6895h-2.3105v3h3v-2.3145l6.6855-6.6875h2.3125v-3h-3zm1 1h1v1h-1v-1zm-9 9h1v1h-1v-1z" fill="currentColor"/>
</svg>
